!!!COM: Fux, Johann Joseph
!!!OMD: Gradus ad Parnassum Exercise
!!!YEC: CC0 1.0 Universal (Public Domain). Mark Gotham and FourScoreAndMore.org waive all rights to this document.
**kern	**kern	**kern
*part3	*part2	*part1
*staff3	*staff2	*staff1
*I"3	*I"2	*I"1
*I'Pno	*I'Pno	*I'Pno
!!LO:LB:g=z
*clefF4	*clefGv2	*clefG2
*k[]	*k[]	*k[]
!!LO:TX:omd:t=
*M4/4	*M4/4	*M4/4
=441	=441	=441
!	!	!LO:TX:a:t=Fig. 155; Species&colon; 5; Modal final&colon; d; Cantus firmus&colon; 1
1D	2r	1d
.	[2A/	.
=442	=442	=442
1D	4A/]	1f
.	8F/L	.
.	8G/J	.
.	4A/	.
.	4B\	.
=443	=443	=443
1C	4c\	1e
.	4G/	.
.	[2c\	.
=444	=444	=444
1G	2c\]	1d
.	[2B\	.
=445	=445	=445
1E	4B\]	1g
.	8G/L	.
.	8A/J	.
.	4B\	.
.	4c#X\	.
=446	=446	=446
1D	4d\	1f
.	4A/	.
.	[2d\	.
=447	=447	=447
1F	4d\]	1a
.	4c\	.
.	[2f\	.
=448	=448	=448
1C	4f\]	1g
.	8e\L	.
.	8d\J	.
.	[2e\	.
=449	=449	=449
1D	4e\]	1f
.	4A/	.
.	[2d\	.
=450	=450	=450
1A	2d\]	1e
.	2c#X\	.
=451	=451	=451
1D	1d	1d
==	==	==
*-	*-	*-
!!!software: music21 v.9.7.1
!!!software: music21 v.9.7.1
!!!software: MuseScore 3.4.2
!!!RDF**kern: > = above
!!!RDF**kern: < = below
